X: 11484
Q: "Slowly."
M: C
L: 1/16
K: G
ga |\
bg3 Tg4 dB3 TB4 | ce3ce3 A6 Bc |\
dB3 TB4 GE3 E4 | "^sf"cA3BG3 (GF).E.D D2ga |\
bg3 Tg4 dB3 TB4 | ce3ce3 A6 Bc |\
dB3 TB4 e3EE3G | GFED ~E2F2 G6 :|
|: dc |\
!p!GB3 TB4 Bd3 d4 | g3d{f}e3d Hd8 |\
([d'd]b3) (bg3) (ge3) (ec3) |B3G A3F G6 :|



